modules/coreui-icons-free/icons/sitemap.svg

<!-- Generated by IcoMoon.io -->
<svg version="1.1" xmlns="http://www.w3.org/2000/svg" width="24" height="24" viewBox="0 0 24 24">
<title>sitemap</title>
<path d="M22.125 15.375h-1.125v-3c-0.001-0.621-0.504-1.124-1.125-1.125h-7.125v-3h1.5c0.621-0.001 1.124-0.504 1.125-1.125v-3.375c-0.001-0.621-0.504-1.124-1.125-1.125h-4.5c-0.621 0.001-1.124 0.504-1.125 1.125v3.375c0.001 0.621 0.504 1.124 1.125 1.125h1.5v3h-7.125c-0.621 0.001-1.124 0.504-1.125 1.125v3h-1.125c-0.621 0.001-1.124 0.504-1.125 1.125v3.375c0.001 0.621 0.504 1.124 1.125 1.125h3.75c0.621-0.001 1.124-0.504 1.125-1.125v-3.375c-0.001-0.621-0.504-1.124-1.125-1.125h-1.125v-2.625h6.75v2.625h-1.125c-0.621 0.001-1.124 0.504-1.125 1.125v3.375c0.001 0.621 0.504 1.124 1.125 1.125h3.75c0.621-0.001 1.124-0.504 1.125-1.125v-3.375c-0.001-0.621-0.504-1.124-1.125-1.125h-1.125v-2.625h6.75v2.625h-1.125c-0.621 0.001-1.124 0.504-1.125 1.125v3.375c0.001 0.621 0.504 1.124 1.125 1.125h3.75c0.621-0.001 1.124-0.504 1.125-1.125v-3.375c-0.001-0.621-0.504-1.124-1.125-1.125h-0zM10.125 4.125h3.75v2.625h-3.75zM5.25 16.875v2.625h-3v-2.625zM13.5 16.875v2.625h-3v-2.625zM21.75 19.5h-3v-2.625h3z"></path>
</svg>

<svg xmlns="http://www.w3.org/2000/svg" width="24" height="24" viewBox="0 0 24 24"><path d="M22.125 15.375H21v-3a1.127 1.127 0 00-1.125-1.125H12.75v-3h1.5a1.127 1.127 0 001.125-1.125V3.75a1.127 1.127 0 00-1.125-1.125h-4.5A1.127 1.127 0 008.625 3.75v3.375A1.127 1.127 0 009.75 8.25h1.5v3H4.125A1.127 1.127 0 003 12.375v3H1.875A1.127 1.127 0 00.75 16.5v3.375A1.127 1.127 0 001.875 21h3.75a1.127 1.127 0 001.125-1.125V16.5a1.127 1.127 0 00-1.125-1.125H4.5V12.75h6.75v2.625h-1.125A1.127 1.127 0 009 16.5v3.375A1.127 1.127 0 0010.125 21h3.75A1.127 1.127 0 0015 19.875V16.5a1.127 1.127 0 00-1.125-1.125H12.75V12.75h6.75v2.625h-1.125A1.127 1.127 0 0017.25 16.5v3.375A1.127 1.127 0 0018.375 21h3.75a1.127 1.127 0 001.125-1.125V16.5a1.127 1.127 0 00-1.125-1.125zm-12-11.25h3.75V6.75h-3.75zM5.25 16.875V19.5h-3v-2.625zm8.25 0V19.5h-3v-2.625zm8.25 2.625h-3v-2.625h3z"/></svg>
